X: 47
T: No_37_Song_of_the_Kluklukwatk_Dance_(c).krn
N: Derived from No_37_Song_of_the_Kluklukwatk_Dance_(c).krn
%%abc-version 2.0
%%abcx-abcm2ps-target-version 5.9.1 (29 Sep 2008)
%%abc-creator hum2abc beta
%%abcx-conversion-date 2019/03/15 08:36:13
%%humdrum-veritas 3445814463
%%humdrum-veritas-data 1027119748
%%linebreak <none>
%%barnumbers 0
L: 1/8
M: 2/4
%%staves {1 2}
V: 1 clef=bass
V: 2 clef=bass
K: Db
[V:1] [K:clef=bass][M:2/4]D2DC | 
[V:2] [K:clef=bass][M:2/4]z4 | 
[V:1] C2z2 | 
[V:2] z4 | 
[V:1] D2DC | 
[V:2] z4 | 
[V:1] D2CC | 
[V:2] z4 | 
[V:1] D2CD | 
[V:2] z4 | 
[V:1] D z CC | 
[V:2] z4 | 
[V:1] C2CD | 
[V:2] z4 | 
[V:1] D4 ]|:  
[V:2] z2F,,F,, ]|:  
[V:1] C2B,C | 
[V:2] F,, z z F,, | 
[V:1] C2z2 | 
[V:2] z2z F,, | 
[V:1] C2CB, | 
[V:2] F,, z z F,, | 
[V:1] C2B,B, | 
[V:2] F,, z F,,F,, | 
[V:1] C2B,B, | 
[V:2] F,, z F,,F,, | 
[V:1] C z B,B, | 
[V:2] F,, z F,,F,, | 
[V:1] C2CD | 
[V:2] F,, z z F,, | 
[V:1] D4 :|]  
[V:2] F,, z F,,F,, :|]  



